X:1
T:A minor Timothy Swan, 1801
T:Isaac Watts, 1719 (Psalm 69, Second Part 1)    88. 88. (L. M.)
T:Leghorn
T:Transcribed from Swan's New England Harmony, 1801.
%%score [ 1 2 3 4 ]
L:1/8
Q:1/8=180
M:4/4
K:C
V:1 treble nm="Tr." snm="Tr."
V:2 treble nm="C." snm="C."
V:3 treble-8 nm="T." snm="T."
V:4 bass nm="B." snm="B."
V:1
"^2.  In  long  com – plaints  he spends his breath,  While hosts of hell, and powers of death,  And all the sons             of    malice,""^1.  Deep in our       hearts ____ ___  let  us  re    –  cord   The deeper sorrows  of our Lord; __   Be –hold the ri      –      sing billows" A4 A4 | %1
 e4 (c2 A2 | G2) G2 e2 dc | B8 | d4 B2 d2 | G4 G4 | c2 A2 G4- | G4 d4 | e2 e2 (e2 c2 | %9
 g2) g2 G2 G2 | %10
"^1.  roll, ________________________________________      To   o         –        ver   –  whelm      his   ho          –         ly    soul.""^2.  join ________________________________________      To   ex       –          e     –   cute         their  cursed           de– sign." (c3 B G3 A | %11
 B2 G2 ABcd | e6) G2 | (c2 e2 d2) dc | (A2 f2 e2) d2 | (c2 G2 c2) [Be]2 | [Ae]8 |] %17
V:2
"^3.  Yet,  gra–cious   God, ______  thy power and love  Has made the curse a blessing prove;  Those dreadful suff'rings    of   thy" E4 E4 | %1
 (E2 A2) (G2 F2 | E2) G2 A2 A2 | G8 | A4 E2 A2 | E4 G4 | E2 D2 E4- | E4 A4 | E2 E2 G4 | G4 G2 G2 | %10
"^3.  Son _________________________________________      A  –  toned         for       sins        which  we                had  done." (G3 F E3 A | %11
 G3 F E2 A2 | G6) E2 | (G2 E2 F2) D2 | (A4 G2) G2 | G6 F2 | E8 |] %17
V:3
"^4.  The pangs  of     our ________   ex – pi – ring    Lord   The honors  of  thy law restored;        His  sorrows  made  thy      justice""^5.  O      for        his    sake _______   our guilt for  –  give,  And let the mourning sinner live;     The Lord will hear   us        in   his" A4 E4 | %1
 A4 (e2 df | e2) d2 c2 d2 | G8 | A4 G2 F2 | E4 D4 | G2 F2 E4- | E4 A4 | c2 c2 e4 | e4 d2 c2 | %10
"^4.  known, ____________________________________   And  paid _____  for       fol       –     lies    not _______    his  own.""^5.  name, ______________________________________  Nor    shall ____  our      hope           be     turned ___   to  shame." (g3 f e3 f | %11
 d3 e c2 BA | B6) e2 | (e2 c2 B2) A2 | (d4 B2) G2 | (E3 D E2) E2 | A8 |] %17
V:4
 A,,4 A,,4 | A,,4 (C,2 D,2 | E,2) G,2 A,2 D,2 | E,8 | D,4 E,2 D,2 | C,4 G,,4 | C,2 D,2 E,4- | %7
 E,4 D,4 | C,2 C,2 C,4 | C4 G,2 E,2 | (C,3 D, E,3 D, | G,3 E, A,2 A,,2 | E,6) E,2 | (C,4 D,2) D,2 | %14
 (D,4 E,2) G,2 | C,6 E,2 | A,,8 |] %17

